X:1
T:A Poor Wayfaring Man/Nearer, My God, to Thee
T:A Poor Wayfaring Man/Nearer, My God, to Thee
T:Duet
%%score [ 1 2 ] { ( 3 5 ) | ( 4 6 ) }
L:1/8
Q:1/4=75
M:6/8
K:F
V:1 treble nm="S A"
V:2 bass nm="T B"
V:3 treble nm="Piano"
V:5 treble 
V:4 bass 
V:6 bass 
V:1
 C |:2 F2 F (FE)F | (G>B)A G2 (F/G/) || A2 A (AG)F | G2 C C2 C | F2 F (FE)F | (G>B)A G2 (A/B/) | %7
w: 1.A|poor way- far- * ing|man * of grief hath *|of- ten crossed * me|on my way, Who|sued so hum- * bly|for * re- lief that *|
w: |night; the floods * were|out; * it blew a *|win- ter hurr- * i-|cane a- loof. I|heard his voice * a-|broad * and flew to *|
w: |pris'n I was * him|next, * con- demned to *|meet a trai- * tor's|doom at morn; The|tide of ly- * ing|tongues * I stem'd and *|
 A2 F B2 A | (GF)E F2 (A/B/) | c2 c (c>B)A | B2 B B3 | A>GF c2 F | G2 C C2 C | F2 F (FE)F | %14
w: I could nev- er|an- * swer nay. I *|had not pow'r * to|ask his name,|Whith- er he went, or|whence he came; Yet|there was some- * thing|
w: bid him wel- come|to * my roof. I *|warmed and clothed * and|cheered my guest,|and laid him on my|couch to rest, then|made the earth * my|
w: ho- nored him 'mid|shame * and scorn. My *|friend- ship's ut- * most|zeal to try,|He asked if I for|him would die: The|flesh was weak, * my|
 (G>B)A G2 (A/B/) | A2 F B2 A | (GF)E F3- |1 F6 | z4 z C :|2 (F6 ||[K:G] z6) | z6 | z6 | z6 | z6 | %25
w: in * his eye that *|won my love; I|knew * not why.|||||||||
w: bed * and seemed in *|E- den's gar- den|while * I dreamed.||2.'Twas|||||||
w: blood * ran chill, but *|my free spir- it|cried, * "I will!"||3.In|||||||
 z6 | z6 | z6 | z6 | z6 | z6 | z6 | z6 | z6 | z6 | z6 | B4 AG | G2 E E3 | D4 GB | A6 | B4 AG | %41
w: |||||||||||4.Or if, on|joy- ful wing|clea- ving the|sky,|Sun, moon, and|
w: ||||||||||||||||
w: ||||||||||||||||
 G2 E E3 | (D G3) FA | G6 | d4 ed | d2 B d3 | d4 ed | d2 B A3 | B4 AG | G2 E E3 | (D G3) FA | G6- | %52
w: stars for- got,|Up- * ward I|fly,|Still all my|song shall be|Near- er, my|God, to Thee,|Near- er, my|God, to Thee,|Near- * er to|thee!|
w: |||||||||||
w: |||||||||||
 G6 |] %53
w: |
w: |
w: |
V:2
 z |:2 z6 | z6 || A,4 G,F, | F,2 D, D,3 | C,4 F,A, | G,6 | A,4 G,F, | F,2 D, D,3 | (C, F,3) E,G, | %10
w: |||1.Near er, my|God, to Thee,|Near- er to|Thee!|E'en though it|be a cross|that * rais- eth|
w: |||2.Though like the|wan- der- er,|the sun gone|down,|Dark- ness be|o- ver me,|my * rest a|
w: |||3.Then with my|wa- king thoughts|bright with thy|praise,|Out of my|sto- ny griefs|Be- * thel I'll|
 F,6 | C4 DC | C2 A, C3 | C4 DC | C2 A, G,3 | A,4 G,F, | F,2 D, D,3 |1 (C, F,3) E,G, | F,6 :|2 %19
w: me.|Still all my|song shall be|Near- er, my|God, to Thee,|Near- er, my|God, to Thee,|Near- * er to|thee!|
w: stone,|Yet, in my|dreams I'd be|||||||
w: raise;|So by my|woes to be|||||||
 (C, F,3) E,G, ||[K:G] G,6 | z6 | z6 | z6 | z6 | z6 | z6 | z6 | z6 | z6 | z6 | z6 | z6 | z6 | z6 | %35
w: Near- * er to|thee!|||||||||||||||
w: ||||||||||||||||
w: ||||||||||||||||
 z4 z D, | G,2 G, (G,F,)G, | (A,>C)B, A,2 (G,/A,/) | B,2 B, (B,A,)G, | A,2 D, D,2 D, | %40
w: 4.Then|in a mo- * ment|to * my view the *|stran- ger start- * ted|from dis- guise. The|
w: |||||
w: |||||
 G,2 G, (G,F,)G, | (A,>C)B, A,2 (B,/C/) | B,2 G, C2 B, | (A,G,)F, G,2 (B,/C/) | D2 D (D>C)B, | %45
w: to- kens in * his|hands * I knew; my *|Sav- ior stood be-|fore * mine eyes. He *|spake and my * poor|
w: |||||
w: |||||
 C2 C C3 | B,>A,G, D2 G, | A,2 D, D,2 D, | G,2 G, (G,F,)G, | A,>CB, A,2 (B,/C/) | B,2 G, C2 B, | %51
w: name He named:|"Of me thou has not|been a- shamed; These|deeds shall thy * me-|mo- ri- al be; Fear *|not, thou didst them|
w: ||||||
w: ||||||
 (A,G,)F, G,3- | G,6 |] %53
w: un- * to me."||
w: ||
w: ||
V:3
 z |:2 z2 z A3 | z2 z c3 || z2 z A3 | z2 z c3 | z2 z A3 | z2 z c3 | z2 z A3 | z2 z c3 | z2 z A3 | %10
 z2 z c3 | z2 z B3 | z2 z A3 | z2 z A3 | z2 z c3 | z2 z A3 | z2 z c3 |1 z2 z A3 | z2 z c3 :|2 %19
 z4 z D ||[K:G] G2 G (GF)G | (A>c)B A2 (G/A/) | B2 B ((BA))G | A2 D D2 D | G2 G (GF)G | %25
 (A>c)B A2 (B/c/) | B2 G c2 B | ((AG))F G2 (B/c/) | d2 d (d>c)B | c2 c c3 | B>AG d2 G | A2 D D2 D | %32
 G2 G (GF)G | (A>c)B A2 (B/c/) | B2 G c2 B | ((AG))F G3 | z2 z B3 | z2 z d3 | z2 z B3 | z2 z d3 | %40
 z2 z B3 | z2 z d3 | z2 z B3 | z2 z d3 | z2 z c3 | z2 z B3 | z2 z B3 | z2 z d3 | z2 z B3 | %49
 z2 z d3 | z2 z B3 | z2 z d3- | d6 |] %53
V:4
 z |:2 z F,- F,4 | z F,- F,4 || z F,- F,4 | z F,- F,4 | z F,- F,4 | z F,- F,4 | z F,- F,4 | %8
 z F,- F,4 | z F,- F,4 | z F,- F,4 | z F,- F,4 | z F,- F,4 | z F,- F,4 | z F,- F,4 | z F,- F,4 | %16
 z F,- F,4 |1 z F,- F,4 | z F,- F,4 :|2 z4 z z ||[K:G] [G,B,]4 [D,A,][E,G,] | %21
 [C,G,]2 [C,E,] [C,E,]3 | [D,G,]4 G,[G,B,] | [D,A,]6 | [G,B,]4 [D,A,][E,G,] | %25
 [C,G,]2 [C,E,] [C,E,]3 | D,4 [D,F,][D,A,] | G,6 | [G,D]4 [G,E][G,D] | [G,D]2 B, [G,D]3 | %30
 [G,D]4 [C,E][G,D] | [F,D]2 [G,B,] [D,A,]3 | [G,B,]4 [D,A,][E,G,] | [C,G,]2 [C,E,] [C,E,]3 | %34
 D,4 [D,F,][D,A,] | G,6 | z G,- G,4 | z G,- G,4 | z G,- G,4 | z G,- G,4 | z G,- G,4 | z G,- G,4 | %42
 z G,- G,4 | z G,- G,4 | z G,- G,4 | z G,- G,4 | z G,- G,4 | z G,- G,4 | z G,- G,4 | z G,- G,4 | %50
 z G,- G,4 | z G,- G,4- | G,6 |] %53
V:5
 x |:2 z2 F4 | z2 G4 || z2 F4 | z2 G4 | z2 F4 | z2 G4 | z2 F4 | z2 G4 | z2 F4 | z2 G4 | z2 F4 | %12
 z2 C4 | z2 F4 | z2 G4 | z2 F4 | z2 G4 |1 z2 F4 | z2 G4 :|2 x5 D ||[K:G] D2 C B,2 D | D2 D D2 D | %22
 D2 D (DC)B, | D2 A, A,2 A, | D2 C B,2 D | D2 D D2 D | D2 D E2 D | (CB,)A, B,2 D | G2 B (B>A)G | %29
 D2 D D3 | D>CB, D2 G | F2 D A,2 D | D2 C B,2 D | D2 D D2 D | D2 D E2 D | (CB,)A, B,3 | z2 G4 | %37
 z2 A4 | z2 G4 | z2 A4 | z2 G4 | z2 A4 | z2 G4 | z2 A4 | z2 G4 | z2 D4 | z2 G4 | z2 A4 | z2 G4 | %49
 z2 A4 | z2 G4 | z2 A4- | A6 |] %53
V:6
 x |:2 C,6 | C,6 || C,6 | C,6 | C,6 | C,6 | C,6 | C,6 | C,6 | C,6 | C,6 | C,6 | C,6 | C,6 | C,6 | %16
 C,6 |1 C,6 | C,6 :|2 x6 ||[K:G] x6 | x6 | x6 | x6 | x6 | x6 | x6 | x6 | x6 | x6 | x6 | x6 | x6 | %33
 x6 | x6 | x6 | D,6 | D,6 | D,6 | D,6 | D,6 | D,6 | D,6 | D,6 | D,6 | D,6 | D,6 | D,6 | D,6 | D,6 | %50
 D,6 | D,6- | D,6 |] %53

